X:818
T:Xiraldilla (CT 240) (Arrg.)
R:Xiraldilla
C:Tradicional
S:Msica Tradicional Asturiana, (C) Tello & Tito. Asturies, 2001.
S:http://pagina.de/MusTradAst <telloytito@asturies.org>
N:Xiraldilla, transcrita en Uviu
A:Asturies
G:Arrg.
O:Uviu
Z:Cancioneru de Torner 240
M:2/4
L:1/8
Q:1/4=160
K:Gm
|"Gm"G2 B2|"Gm"d3 B|"Gm"G2 B2|"Cm"c3 A|"D"^F2 A2|"Gm"B3 G|"D"^F2 G2|"Gm"G4|
 "Gm"G2 B2|"Gm"d3 B|"Gm"G2 B2|"F"c3 A|"D"^F2 A2|"Gm"B3 G|"D"^F2 G2|"Gm"G2 z ^F|
"D"^F2 A2|"Gm"B2 AG|"D"^F2 G2|"Gm"G2 z ^F|"D"^F2 A2|"Gm"B2 AG|"D"^F2 G2|"Gm"G4||
W:Por qu lloras, dama hermosa
W:Por qu tengo de llorar!
W:Toc la suerte a mi amante
W:y sola me va a dejar.
W:Solita y sola
W:voy a quedar,
W:solita y sola
W:para llorar.
W:
